dist/svgs/crypto-icons/icons/wan.svg

<svg height="512" viewBox="0 0 444 512" width="444" xmlns="http://www.w3.org/2000/svg"><g fill-rule="evenodd"><path d="m221.665108 227.167821-221.665108 130.154405v71.531262l221.665108-130.152116 221.663393 130.152116v-71.531262z"/><path d="m64.7614212 148.224286 156.9036868-90.5868156 156.900255 90.5868156 58.577949-23.817439-215.478204-124.406847-215.47763091 124.406847z"/><path d="m378.565363 163.369761v200.318427l-23.304295 13.456161 49.494096 29.059289 38.573337-22.271714v-246.893265zm-290.4973585 213.774588-23.4959375-13.567142v-200.284103l-64.572067-26.256161v246.894981l38.5733363 22.271714z"/><path d="m341.445649 385.118963-119.780541 69.15604-119.781685-69.15604-49.4946677 29.061006 169.2763527 97.730789 169.274637-97.730789z"/></g></svg>

<svg xmlns="http://www.w3.org/2000/svg" viewBox="0 0 444 512"><g fill-rule="evenodd"><path d="M221.665 227.168L0 357.322v71.531l221.665-130.152L443.33 428.853v-71.53zM64.761 148.224l156.904-90.587 156.9 90.587 58.578-23.817L221.665 0 6.187 124.407z"/><path d="M378.565 163.37v200.318l-23.304 13.456 49.494 29.06 38.574-22.272V137.039zM88.068 377.144l-23.496-13.567V163.293L0 137.037v246.895l38.573 22.272zm253.378 7.975l-119.78 69.156-119.783-69.156L52.39 414.18l169.276 97.73 169.275-97.73z"/></g></svg>
